static/github-logo.svg

<?xml version="1.0" encoding="UTF-8"?>
<svg width="21px" height="16px" viewBox="0 0 21 16" version="1.1" xmlns="http://www.w3.org/2000/svg" xmlns:xlink="http://www.w3.org/1999/xlink">
    <!-- Generator: Sketch 51.2 (57519) - http://www.bohemiancoding.com/sketch -->
    <title>github-logo</title>
    <desc>Created with Sketch.</desc>
    <defs></defs>
    <g id="Symbols" stroke="none" stroke-width="1" fill="none" fill-rule="evenodd">
        <g id="Header" transform="translate(-1205.000000, -41.000000)" fill="#86939E" fill-rule="nonzero">
            <g id="social" transform="translate(1205.000000, 41.000000)">
                <path d="M15.3321,0 C15.6051,0.616113194 15.7819667,1.63941298 15.5180667,2.38862703 C16.5972333,3.30433309 16.9682333,5.53041012 16.4472,7.34953244 C17.9853333,7.4661696 19.8174667,7.29341675 21,7.7625161 C19.8944667,7.62129934 18.3845667,7.34419913 16.9586667,7.44066247 C16.6884667,7.45898122 16.2883,7.43045961 16.3079,7.80819706 C17.9585,7.93689214 19.5988333,8.07718137 20.9540333,8.49758529 C19.6098,8.27938336 17.9781,7.94686311 16.3079,7.90071838 C15.6179333,9.25375583 14.2293667,9.91879634 12.3125333,10.0588537 C12.5185667,10.5045329 12.9131333,10.6740393 13.0095,11.3907898 C13.1532333,12.4616256 12.7845667,14.0298505 13.1483333,14.7435864 C13.3228667,15.0856139 13.6073,15.0946573 13.7991,15.3870618 C13.3296333,15.9391753 12.1657667,15.3249172 12.0332333,14.7435864 C11.8062,13.7476488 12.3790333,12.2037717 11.7551,11.5285283 C11.7989667,12.6149003 11.4965667,14.1404587 11.8015333,15.1108891 C11.9217,15.4925686 12.2686667,15.6398143 12.1732333,15.9841606 C9.9911,16.2042176 10.9032,13.1774485 10.5464333,11.3905579 C10.2172,11.4139781 10.3618667,11.8805267 10.3607,12.0797142 C10.3513667,13.8244021 10.7200333,16.2174349 8.8277,15.9841606 C8.7724,15.6173216 9.08156667,15.4928005 9.1994,15.1579614 C9.5445,14.1764005 9.13476667,12.7134505 9.29296667,11.5287602 C8.5708,12.0699752 9.3688,13.9588943 8.92126667,14.9274697 C8.66343333,15.4849164 7.83253333,15.7274661 7.2023,15.4786556 C7.28443333,15.063585 7.71563333,15.1305992 7.89856667,14.7438183 C8.1543,14.2049222 7.90043333,13.428114 7.99166667,12.6311321 C6.6549,12.8964062 5.61796667,12.5926395 5.11046667,11.7583244 C4.88343333,11.3838333 4.8272,10.9420961 4.5528,10.6102715 C4.2798,10.278215 3.84346667,10.2334616 3.717,9.7840723 C5.3725,9.3880161 5.43596667,11.4772821 6.92276667,11.5287602 C7.3787,11.5452239 7.61576667,11.39821 8.03763333,11.2996597 C8.1557,10.7728215 8.4084,10.3797798 8.78103333,10.1047665 C6.93093333,9.85317344 5.40306667,9.28065426 4.69256667,7.90095027 C3.0107,7.98303686 1.47163333,8.20634021 0.0462,8.54349813 C1.34003333,8.07648572 2.9358,7.90906617 4.64636667,7.8541099 C4.54556667,7.25214157 3.66193333,7.41770605 3.11336667,7.44089435 C2.0937,7.48541589 0.810366667,7.61132837 0,7.7625161 C1.1746,7.34628607 2.82286667,7.39822787 4.4142,7.39498151 C3.92746667,5.87846653 4.09616667,3.4694338 5.1576,2.57227838 C4.85683333,1.81889044 4.95016667,0.58666405 5.34333333,0 C6.52843333,0.0528693294 7.2471,0.566490227 7.99166667,1.05669094 C8.91496667,0.795822537 9.88586667,0.665968044 11.151,0.735069185 C11.683,0.764286446 12.2362333,1.00196655 12.6371,0.964401496 C13.0302667,0.927763978 13.4635667,0.48927318 13.8453,0.321853637 C14.3425333,0.103651712 14.7632333,0.0204057061 15.3321,0 Z" id="github-logo"></path>
            </g>
        </g>
    </g>
</svg>

<svg width="21" height="16" viewBox="0 0 21 16" xmlns="http://www.w3.org/2000/svg"><title>github-logo</title><path d="M15.332 0c.273.616.45 1.64.186 2.39 1.08.914 1.45 3.14.93 4.96 1.537.116 3.37-.057 4.552.413-1.106-.142-2.615-.42-4.04-.322-.272.02-.672-.01-.652.368 1.65.13 3.29.27 4.646.69-1.344-.22-2.976-.55-4.646-.597-.69 1.354-2.08 2.02-3.995 2.16.206.445.6.614.696 1.33.143 1.072-.225 2.64.138 3.354.175.342.46.35.65.643-.468.552-1.632-.062-1.765-.643-.227-.996.346-2.54-.278-3.215.044 1.085-.258 2.61.047 3.58.12.383.467.53.37.874-2.18.22-1.27-2.807-1.626-4.593-.33.024-.184.49-.185.69-.01 1.744.36 4.137-1.532 3.904-.056-.367.254-.49.37-.826.346-.982-.063-2.445.095-3.63-.722.542.076 2.43-.372 3.4-.257.557-1.087.8-1.718.55.082-.414.514-.347.697-.734.254-.54 0-1.316.092-2.113-1.337.266-2.374-.037-2.882-.872-.227-.374-.283-.816-.557-1.148-.273-.332-.71-.377-.836-.826 1.655-.396 1.72 1.693 3.206 1.745.456.015.693-.132 1.115-.23.118-.527.37-.92.743-1.195C6.93 9.853 5.404 9.28 4.694 7.9c-1.682.083-3.22.306-4.647.643 1.294-.467 2.89-.634 4.6-.69-.1-.6-.984-.435-1.533-.412-1.02.045-2.303.17-3.113.323 1.175-.417 2.823-.365 4.414-.368-.487-1.517-.318-3.926.744-4.823C4.858 1.82 4.95.587 5.343 0c1.185.053 1.904.566 2.65 1.057.922-.26 1.893-.39 3.158-.322.533.03 1.086.267 1.487.23.393-.037.827-.476 1.208-.643.498-.218.918-.302 1.487-.322z" fill="#86939E" fill-rule="nonzero"/></svg>
